X:1
T:Ung diable blanc
T:Ung diable blanc
T:Pierre de Manchicourt
C:Pierre de Manchicourt
%%score [ 1 2 [ 3 4 ] ]
L:1/8
Q:1/4=96
M:2/2
K:F
V:1 treble nm="Superius" snm="S"
V:2 treble nm="Altus" snm="A"
V:3 treble-8 nm="Tenor 1" snm="T 1"
V:4 treble-8 nm="Tenor 2" snm="T 2"
V:1
 z4 d2 dd | A2 d2 c2 f2 | f2 e2 d2 cB |: A2 B2 A2 G2 | A4 z2 A2 | Bcdd ffee | d4 c4 | G2 Bc d3 d | %8
w: Ung dia- ble|blanc, com- me le|jour poin- * * *||doit, se|pour- me- noit au jar- din de pla-|san- ce,|se pour- me- noit au|
w: ||||doit sen|va vers luy en bel- le con- te-|nan- ce,|sen va vers luy en|
 f2 e2 d2 c2 | B2 A3 G G2- |"^#" G2 F2 G4 | z4 d3 d/d/ | A2 d2 c2 f2 |1 f2 e2 d2 cB :|2 %14
w: jar- din de plai-|san- * * *|* * ce,|fre- re ni-|tou qui de faict|l'at- ten- * * *|
w: bel- le con- te-|nan- * * *|||||
 G2 F2 G2 z B || c2 A2 B2 G2 | z2 d2 e2 c2 | d4 z2 f2 | g2 e2 ffff | e2 d2 c2 d2- | d2 c2 d4 | %21
w: (san)- * ce, si|l'em- * poi- gna,|si l'em- poi-|gna, si|l'em- poi- gna par si tres|grand oul- tran- *|* * ce,|
w: |||||||
 z2 d2 f2 d2 | B2 d4 G2 | A2 B2 c2 B2- | B2 A2 B2 z d | c2 A2 BBcc | B2 d2 ff e2 | %27
w: par hault, par|bas, du long|et de tra- *|* * vers, si|ru- de ment, si ru- de-|ment que du bout de|
w: ||||||
 d2 cd ed/e/ f2- | f2 e4 d2 | c4 z2 c2 | c2 c2 B4 | d2 A2 c2 GA | Bc d3 e f2- | f2 e2 d4- | %34
w: sa lan- * * * * *||ce le|dia- ble blanc|fist tom- ber à _|_ _ _ _ _|* re- vers,|
w: |||||||
 d4 d2 A2 | c2 GA Bc d2- | d2 c2 B2 A2- | AG G4 F2 | G8 |] %39
w: _ fist tom-|ber à _ _ _ _|_ _ _ _|* * * re-|vers.|
w: |||||
V:2
 G2 GG D2 G2 | F3 G AGAB | c2 A4 G2 |: A2 G2 F2 ED | E2 z2 D2 FF | G4 z2 G,2 | B,C D2 z2 C2 | %7
w: Ung dia- ble blanc, com-|me le jour _ _ _|_ poin- *||doit, se pour- me-|noit, se|pour- me- noit, se|
w: |||ten- * * * *|doit, sen va vers|luy, sen|va vers luy, sen|
 EFGG B2 B2 | A2 c2 B2 A2 | G2 E2 FEDC | D2 D3 D B,2 | G3 G D2 G2 | FEFG AGAB |1 c2 A4 G2 :|2 %14
w: pour- me- noit au jar- din|de plai- san- *||ce, fre- re ni-|tou, fre- re ni-|tou _ _ _ qui _ _ _|de faict l'at-|
w: va vers luy en bel- le|con- te- nan- *||||||
 D4 D4 || z E F2 D2 E2 | z A B2 G2 AA | FF G2 E2 D2- | D2 C2 D2 A2- | AF G2 A2 z2 | A2 c2 A2 F2 | %21
w: (nan)- ce,|si l'em- poi- gna,|si l'em- poi- gna par|si tres grand oul- tran|_ _ _ _|* * * ce,|par hault, par bas,|
w: |||||||
 z2 A2 B4 | F2 G2 D3 E |"^b" F2 G4 E2 | F4 z2 B2 | A2 F2 GFAA | GGBB A2 G2 | FG A2 B2 AG | A8 | %29
w: du long|et de tra- *||vers, si|ru- de- ment, si ru- de-|ment que du bout de sa|lan- * * * * *|ce|
w: ||||||||
 z2 A2 A4- | A2 A2 GA BG | A2 A4 E2 | G2 DE FG A2- | AG G4 F2 | B4 A2 A2- | A2 E2 G2 D2- | %36
w: le dia-|* ble blanc _ _ _|_ fist tom-|ber à _ _ _ _|_ _ _ re-|vers, fist _|_ tom- ber à|
w: |||||||
 DE F2 D2 E2- | E2 C2 D4- | D8 |] %39
w: _ _ _ _ _|* re- vers.|_|
w: |||
V:3
 z8 | d2 dd A2 d2 | c2 c2 d2 e2 |: f2 e3 d d2- | d2 c2 d4 | G2 Bc d2 z2 | d2 fg a2 a2 | g6 g2 | %8
w: |Ung dia- ble blanc, com-|me le jour poin-||* * doit,|se pour- me- noit|se pour- me- noit au|jar- din|
w: |||ten- * * *|* * doit,|sen va vers luy,|sen va vers luy, en|bel le|
 (3f2 g2 a2 (3f2 e2 f2 | d2 c4 B2 | A4 G4- | G4 z4 | d3 d A2 d2 |1 c2 c2 d2 e2 :|2 A4 G4 || %15
w: de _ _ plai- * *|san- * *|* ce,|_|fre- re ni- tou|qui de faict l'at-|(nan)- ce,|
w: con- * * te- * *|nan- * *||||||
 z c d2 B2 c2 | z f g2 e2 fe | dc B2 c2 A2- | A2 G2 A3 B | c2 d2 f2 ed | e4 d2 z2 | d2 f2 d2 B2 | %22
w: si l'em- po- gna,|si l'em- poi- gna par|si tres grand oul- tran-|||* ce,|par hault, par bas,|
w: |||||||
 d4 G2 B2 |"^b" c2 d2 ed cB | c4 z2 B2 | c2 d2 Gdef | d4 z4 | d2 ff e2 d2 | c3 d e2 f2 | e4 z2 e2 | %30
w: du long et|de tra- * * * *|vers, si|ru- de- ment, si ru- de-|ment|que du bout de sa|lan- * * *|ce le|
w: ||||||||
 f2 f2 d2 g2 | d2 f2 e2 e2 | d4 z2 d2 | A2 c2 B2 A2 | G2 g2 d2 f2 | e2 e2 d4 | G2 A2 B2 c2- | %37
w: dia- ble blanc fist|tom- ber à re-|vers, fist|tom- ber à re-|vers, fist tom- ber|à re- vers,|fist tom- ber à|
w: |||||||
 cB AG A4 | G8 |] %39
w: _ _ _ _ re-|vers.|
w: ||
V:4
 z8 | z8 | A2 AA D2 G2 |: F2 G2 A2 B2 | A4 D4 | z4 D2 EF | G2 D2 FG A2 | cc G2 z GBc | %8
w: ||Ung dia- ble blanc, com-|me le jour poin-|* doit,|se pour- me-|noit, se pour- me- noit|au jar- din, se pour- me-|
w: |||qui de faict l'at-|ten- doit,|sen va vers|luy, sen va vers luy,|va- vers luy, sen va vers|
 d2 A2 B2 F2 | G2 A2 F2 G2 | D4 z2 d2- | ddGG BABc | d2 D2 z4 |1 A3 A D2 G2 :|2 D4 z2 G2 || %15
w: noit au jar- din|de plai- san- *|ce fre-|* re ni- tou qui de faict l'at-|ten- doit,|fre- re ni- tou|* si|
w: luy en bel- le|con- te- nan- nan-|||||ce *|
 A2 F2 G2 z c | d2 B2 c2 z A | B2 G2 AAFF | E2 E2 DE FG | A2 B2 A4- | A4 z2 d2 | f2 d2 B2 d2- | %22
w: l'em- poi- gna, si|l'em- poi- gna, si|l'em- poi- gna par si tres|grand oul- tran- * * *|* * ce,|_ par|hault, par bas, du|
w: |||||||
 d2 G2 B4 | A2 G2 C2 G2 | F4 B4 | z4 B2 AF | G3 F D2 G2 | BB A2 G2 DE | FG AB c2 d2 | A4 z2 A2 | %30
w: _ long et|de tra- * *|* vers,|si du- re-|ment _ _ que|du bout de sa lan- *||ce le|
w: ||||||||
 F2 F2 G4 | z2 d2 A2 c2 | GA Bc d2 D2 |"^#" F2 C2 D2 D2 | G4 z2 d2 | A2 c2 G2 B2- | BA F2 G2 C2 | %37
w: dia- ble blanc|fist tom- ber|à _ _ _ _ _|_ _ _ re-|vers, fist|tom- ber à _|_ _ _ _ _|
w: |||||||
 E4 D4 | G8 |] %39
w: * re-|vers.|
w: ||

